X: 23
T:Spider In The Bath
M:6/8
L:1/8
Q:100
C:Marcus Turner
K:Am
T:Chorus:
"Am"c3   "E"B3|"Am"A3z2B|c2B A2c|e3z2e|
a2e "Dm"f2d|"Am"ec2 A2B|c3 "E"B3|"Am"A2     "E"e-e3|
"Am"c3  "E"B3|"Am"A3z2B|!
c2B A2c|e3z2e|
a2e "Dm"f2d|"Am"e2c A2B|c2A "E"B2G|"Am"A3z2|
"Am"z6|"Dm"z6|"Am"z3"E"z3|"Am"z3z2|
T:Verse:
A|"C"c2c c2e|g2a g2e|"G"dc2 d2^d|"C"e3-eze|
"F"a2a a2a|"C"g2g gze|"Dm"dc2 d2^d|"E"e3-eze|!
"F"a2a a2a|"C"gg2 g2g|"Dm"f2e f2g|"C"e3-eze|
"F"a2a a2a|"C"gg g- g ze|"Dm"dc2 d2^d|"E"e3 z3|z3 e3:||
